X: 7
T:Viva la montaa, viva
M:6/8
L:1/8
Q:1/4=80
C:Tradicional Len
S:Miguel Manzano, Cancionero Leons ISBN 978-84-505-8009-9
O:Spain
A:KINGDOM OF LEON
R:Baile Chano
K:FDor
DGG G=A=B|c d2- d3|ddd cdd|
(B/2c/2B/2A/2G- G3)|Gcc cBB|
G(GF- F3)|FBA cBB|
B G2-G3-|G3z2z|]
